X:1
T:Leyden, 77.77 D
T:Leyden, 77.77 D
T:Ludwig Spohr (1784-1859), arr. Samuel S. Wesley
T:Public Domain Courtesy of the Cyber Hymnal™
C:Ludwig Spohr (1784-1859), arr. Samuel S. Wesley
Z:Public Domain
Z:Courtesy of the Cyber Hymnal™
%%score ( 1 2 ) ( 3 4 )
L:1/8
Q:1/4=110
M:4/4
K:Eb
V:1 treble 
V:2 treble 
V:3 bass 
V:4 bass 
V:1
 [EG]3 [EG] [DF]2 [EG]2 | [DA]2 [DF]2 [EB]4 | [Ee]3 [Ed] [Ec]2 [EB]2 | [EB]2 [FA]2 [EG]4 | %4
 [EG]3 [EG] [DF]2 [=EG]2 | [FA]2 F2 [FB]4 | [EG]2 [_Ge]2 [Fd]2 (dc) | [FB]2 [E=A]2 [DB]4 | %8
 [DF]3 [DF] [=EB]2 [FB]2 | [GB]2 [Gc]2 A2 B2 | [EG]2 [FG]2 [EG]2 [DG]2 | [CG]2 [C^F]2 [DG]4 | %12
 [EG]3 [EG] [DF]2 [EG]2 | [DA]2 [DF]2 [_DB]4 | [CB]2 A2 [FA]2 [EG]2 | [EF]2 [DF]2 [B,E]4 |] %16
V:2
 x8 | x8 | x8 | x8 | x8 | x2 F2 x4 | x6 =G2 | x8 | x8 | x4 F4 | x8 | x8 | x8 | x8 | x2 (D>E) x4 | %15
 x8 |] %16
V:3
 [E,B,]3 [E,B,] [E,A,]2 [E,G,]2 | [E,F,]2 [E,A,]2 [E,G,]4 | [G,B,]3 [G,B,] A,2 [G,B,]2 | %3
 [F,C]2 [B,D]2 [E,B,]4 | [E,B,]3 [E,B,] [A,_C]2 [G,B,]2 | [F,C]2 [E,_C]2 [D,B,]4 | %6
 [E,B,]2 [C,=A,]2 [D,B,]2 (=B,C) | [F,D]2 [F,C]2 [B,,B,]4 | B,3 [A,B,] [G,_D]2 [F,D]2 | %9
 [=E,_D]2 [E,C]2 [F,C]2 [=D,B,]2 | [E,B,]2 [D,=B,]2 [C,C]2 [_B,,G,]2 | [A,,C]2 [A,,C]2 [G,,=B,]4 | %12
 [E,B,]3 [E,B,] [E,A,]2 [E,G,]2 | [E,F,]2 [E,A,]2 [E,G,]4 | [A,C]2 _C2 [D,C]2 [E,B,]2 | %15
 [A,,C]2 (B,A,) [E,G,]4 |] %16
V:4
 x8 | x8 | x4 A,2 x2 | x8 | x8 | x8 | x6 E,2 | x8 | B,3 x5 | x8 | x8 | x8 | x8 | x8 | %14
 x2 (F,>E,) x4 | x2 B,,2 x4 |] %16

